build/redact/BorderBoldRightOutline.svg

<svg xmlns="http://www.w3.org/2000/svg" fill="none" viewBox="0 0 24 24" focusable="false"><path d="M0 0H24V24H0z" transform="matrix(1 0 0 -1 0 24)"/><path fill="#74767B" fill-rule="evenodd" d="M15.6784 4.00625C15.3197 4.00625 15.0288 4.29727 15.0288 4.65625C15.0288 5.01523 15.3197 5.30625 15.6784 5.30625L16.335 5.30625C16.3741 5.30625 16.413 5.3072 16.4515 5.30908L16.4515 11.3844C16.3895 11.3646 16.3234 11.354 16.2548 11.354L15.0604 11.354C14.7017 11.354 14.4108 11.645 14.4108 12.004C14.4108 12.363 14.7017 12.654 15.0604 12.654L16.2548 12.654C16.3234 12.654 16.3895 12.6434 16.4515 12.6237L16.4515 18.6987C16.4129 18.7006 16.3741 18.7016 16.335 18.7016L15.6784 18.7016C15.3197 18.7016 15.0288 18.9926 15.0288 19.3516C15.0288 19.7105 15.3197 20.0016 15.6784 20.0016L16.335 20.0016C16.374 20.0016 16.4128 20.0009 16.4515 19.9997L17.0019 20C18.6577 20 20 18.6569 20 17L20 7C20 5.34315 18.6577 4 17.0019 4L16.4515 4L16.4515 4.00808C16.4128 4.00686 16.374 4.00625 16.335 4.00625L15.6784 4.00625ZM7.09444 5.37167C7.27119 5.32901 7.45633 5.30625 7.64764 5.30625L8.30424 5.30625C8.663 5.30625 8.95382 5.01523 8.95382 4.65625C8.95382 4.29727 8.663 4.00625 8.30424 4.00625L7.64764 4.00625C7.35294 4.00625 7.06557 4.04135 6.78983 4.10791C6.49226 4.17972 6.29241 4.4459 6.29241 4.73925C6.29241 4.78971 6.29832 4.84098 6.31067 4.89219C6.39478 5.24117 6.74569 5.45584 7.09444 5.37167ZM11.3347 4.00625C10.976 4.00625 10.6851 4.29727 10.6851 4.65625C10.6851 5.01523 10.976 5.30625 11.3347 5.30625L12.6479 5.30625C13.0067 5.30625 13.2975 5.01523 13.2975 4.65625C13.2975 4.29727 13.0067 4.00625 12.6479 4.00625L11.3347 4.00625ZM5.36453 7.1027C5.37688 7.05148 5.38279 7.00022 5.38279 6.94976C5.38279 6.6564 5.18294 6.39023 4.88537 6.31841C4.53662 6.23424 4.18571 6.4489 4.10159 6.79788C4.03508 7.07381 4 7.36136 4 7.65625L4 8.31345C4 8.67244 4.29083 8.96345 4.64958 8.96345C5.00833 8.96345 5.29916 8.67244 5.29916 8.31345L5.29916 7.65625C5.29916 7.46481 5.3219 7.27956 5.36453 7.1027ZM11.9862 9.57764C12.345 9.57764 12.6358 9.28662 12.6358 8.92764L12.6358 7.73252C12.6358 7.37353 12.345 7.08252 11.9862 7.08252C11.6275 7.08252 11.3367 7.37353 11.3367 7.73252L11.3367 8.92764C11.3367 9.28662 11.6275 9.57764 11.9862 9.57764ZM5.29916 11.3467C5.29916 10.9877 5.00833 10.6967 4.64958 10.6967C4.29083 10.6967 4 10.9877 4 11.3467L4 12.6611C4 13.0201 4.29083 13.3111 4.64958 13.3111C5.00833 13.3111 5.29916 13.0201 5.29916 12.6611L5.29916 11.3467ZM7.71752 11.354C7.35876 11.354 7.06794 11.645 7.06794 12.004C7.06794 12.363 7.35876 12.654 7.71752 12.654L8.91186 12.654C9.27061 12.654 9.56144 12.363 9.56144 12.004C9.56144 11.645 9.27061 11.354 8.91186 11.354L7.71752 11.354ZM11.9862 16.9233C12.345 16.9233 12.6358 16.6323 12.6358 16.2733L12.6358 15.0782C12.6358 14.7192 12.345 14.4282 11.9862 14.4282C11.6275 14.4282 11.3367 14.7192 11.3367 15.0782L11.3367 16.2733C11.3367 16.6323 11.6275 16.9233 11.9862 16.9233ZM5.29916 15.6944C5.29916 15.3354 5.00833 15.0444 4.64958 15.0444C4.29083 15.0444 4 15.3354 4 15.6944L4 16.3516C4 16.6465 4.03508 16.934 4.10159 17.2099C4.18571 17.5589 4.53662 17.7736 4.88537 17.6894C5.18294 17.6176 5.38279 17.3514 5.38279 17.0581C5.38279 17.0076 5.37688 16.9563 5.36453 16.9051C5.3219 16.7283 5.29916 16.543 5.29916 16.3516L5.29916 15.6944ZM7.09444 18.6361C6.74569 18.552 6.39478 18.7666 6.31066 19.1156C6.29832 19.1668 6.29241 19.2181 6.29241 19.2686C6.29241 19.5619 6.49226 19.8281 6.78983 19.8999C7.06557 19.9665 7.35294 20.0016 7.64764 20.0016L8.30424 20.0016C8.663 20.0016 8.95382 19.7105 8.95382 19.3516C8.95382 18.9926 8.663 18.7016 8.30424 18.7016L7.64764 18.7016C7.45633 18.7016 7.27119 18.6788 7.09444 18.6361ZM11.3347 18.7016C10.976 18.7016 10.6851 18.9926 10.6851 19.3516C10.6851 19.7105 10.976 20.0016 11.3347 20.0016L12.6479 20.0016C13.0067 20.0016 13.2975 19.7105 13.2975 19.3516C13.2975 18.9926 13.0067 18.7016 12.6479 18.7016L11.3347 18.7016Z"/></svg>

<svg xmlns="http://www.w3.org/2000/svg" fill="none" viewBox="0 0 24 24" focusable="false"><path fill="#74767B" fill-rule="evenodd" d="M15.67 4c-.36 0-.65.29-.65.65s.29.65.65.65h.78v6.08a.7.7 0 0 0-.2-.03h-1.19c-.36 0-.65.29-.65.65s.29.65.65.65h1.19c.07 0 .13-.01.2-.03v6.07c-.04.01-.08.01-.12.01h-.66c-.36 0-.65.29-.65.65s.29.65.65.65h.66c.04 0 .08 0 .12-.01L17 20c1.65 0 3-1.35 3-3V7c0-1.66-1.35-3-3-3h-1.33M7.09 5.37c.18-.05.36-.07.55-.07h.66c.36 0 .65-.29.65-.65S8.66 4 8.3 4h-.66c-.29 0-.58.04-.85.1a.65.65 0 0 0-.48.79c.08.35.43.56.78.48M11.33 4c-.36 0-.65.29-.65.65s.29.65.65.65h1.31c.36 0 .65-.29.65-.65S13 4 12.64 4zM5.36 7.1c.01-.05.02-.1.02-.16 0-.29-.2-.55-.5-.63-.35-.08-.7.13-.78.48-.07.28-.1.57-.1.86v.66c0 .36.29.65.64.65.36 0 .65-.29.65-.65v-.66c0-.19.03-.38.07-.55m6.62 2.47c.36 0 .65-.29.65-.65V7.73c0-.36-.29-.65-.65-.65s-.65.29-.65.65v1.19c0 .36.29.65.65.65m-6.69 1.77c0-.36-.29-.65-.65-.65-.35 0-.64.29-.64.65v1.32c0 .36.29.65.64.65.36 0 .65-.29.65-.65zm2.42.01c-.36 0-.65.29-.65.65s.29.65.65.65h1.2c.36 0 .65-.29.65-.65s-.29-.65-.65-.65zm4.27 5.57c.36 0 .65-.29.65-.65v-1.2c0-.36-.29-.65-.65-.65s-.65.29-.65.65v1.2c0 .36.29.65.65.65m-6.69-1.23c0-.36-.29-.65-.65-.65-.35 0-.64.29-.64.65v.66c0 .29.03.58.1.85.08.35.43.57.78.48.3-.07.5-.33.5-.63 0-.05-.01-.1-.02-.15a2.5 2.5 0 0 1-.07-.55zm1.8 2.94c-.35-.08-.7.13-.78.48-.02.05-.02.1-.02.15 0 .3.2.56.5.63.27.07.56.11.85.11h.66c.36 0 .65-.29.65-.65s-.29-.65-.65-.65h-.66c-.19 0-.37-.03-.55-.07m4.24.07c-.36 0-.65.29-.65.65s.29.65.65.65h1.31c.36 0 .65-.29.65-.65s-.29-.65-.65-.65z"/></svg>
